X:1
T:Title
%%score { ( 1 4 ) | ( 2 3 ) }
L:1/8
Q:1/4=100
M:6/8
K:Db
V:1 treble nm="Grand Piano"
V:4 treble 
V:2 bass 
V:3 bass 
V:1
 [FA]2 A AGF | [Fd]2 d dcB | [FA]3 [FB]2 F | [CG]6[K:bass] | [EG]2 G GFE | [Ec]2 c cBA | %6
w: E.~S.~Lorenz * * * *||||||
 [EG]3 [CA]2 E | [DF]6 | [FA]2 [FA] [FA][DF][FA] | [Fd]2 [Gd] .[Fd]3 | [FA]2 [FA] [FA][A,DF][DFA] | %11
w: |||||
 [DGB]2 [DGB] .[DGB]3 | [DBd]2 [DBd] [DBd][DAc][DGB] | [DFd]2 [DFA] [DFA]2 [B,EG] | %14
w: |||
 [DF]3[K:bass] [G,CE]3 | [F,D]6 |] %16
w: ||
V:2
 z2[K:treble] F FED | z2[K:treble] F FAG | D,,F,,A,, D,2 D | [A,,E,]2 A,, .A,,3 | z2 E EDC | %5
 z2[K:treble] E EGF | A,[K:bass]E,C, A,,2 C | D,2 D, .D,3 | [D,D]2 [D,D] [D,D][D,A,][D,D] | %9
 [D,A,]2 [D,B,] .[D,A,]3 | [D,D]2 [D,D] [D,D]D,D, | G,2 G, .G,3 | G,2 G, G,G,G, | D,2 D, D,2 G, | %14
 A,3 A,,3 | D,6 |] %16
V:3
 D,6[K:treble] | D,6[K:treble] | x6 | x6 | A,,6 | A,,6[K:treble] | x[K:bass] x5 | x6 | x6 | x6 | %10
 x6 | x6 | x6 | x6 | x6 | x6 |] %16
V:4
 x6 | x6 | x6 | z2[K:bass] E, .E,3 | x6 | x6 | x6 | A,2 A, .A,3 | x6 | x6 | x6 | x6 | x6 | x6 | %14
 x3[K:bass] x3 | x6 |] %16

